public/images/file-maker/man-profile.svg

<svg width="226" height="340" viewBox="0 0 226 340" fill="none" xmlns="http://www.w3.org/2000/svg">
<g clip-path="url(#clip0)">
<path d="M211.126 177.649C211.126 205.934 201.306 225.993 185.566 235.662C185.132 235.951 175.168 243.022 174.591 243.311C158.128 252.547 168.67 231.622 143.543 217.19C93.1439 188.039 52.1318 117.615 52.1318 59.7455C52.1318 31.1716 25.1273 31.7489 41.3011 22.2243C41.7343 21.9356 55.4532 13.5655 55.8864 13.2769C72.349 4.32954 94.8768 6.06129 119.715 20.3482C170.258 49.2107 211.126 119.779 211.126 177.649Z" fill="url(#paint0_linear)"/>
<path d="M99.3534 251.248C99.2089 251.248 99.0645 251.248 98.9201 251.103C72.2045 235.662 47.3661 209.686 28.7374 177.648C10.253 145.611 0 111.12 0 80.5262C0 57.2919 5.92077 37.5211 17.3291 23.3785C17.6179 23.0899 18.0511 23.0899 18.3399 23.2342C18.6288 23.5228 18.7732 23.9558 18.4843 24.2444C7.36486 38.0984 1.44409 57.5805 1.44409 80.5262C1.44409 110.832 11.5527 145.178 30.0371 176.927C48.5214 208.676 73.2153 234.652 99.6422 249.949C99.931 250.093 100.075 250.526 99.931 250.959C99.7866 251.103 99.4978 251.248 99.3534 251.248Z" fill="#FF6B00"/>
<path d="M171.548 244.316C207.007 223.6 206.645 157.052 170.74 95.6769C134.835 34.3016 76.9834 1.34084 41.5245 22.0569C6.06549 42.773 6.42709 109.321 42.3321 170.696C78.2372 232.072 136.089 265.032 171.548 244.316Z" fill="#FF6B00"/>
<path d="M165.493 246.63C165.782 246.63 165.926 246.486 166.215 246.341C166.793 246.053 167.226 245.62 167.804 245.331C167.082 245.764 166.36 246.197 165.493 246.63Z" fill="url(#paint1_radial)"/>
<path d="M109.029 27.1309C84.7684 13.1326 62.8182 11.2566 46.5 19.4824C47.7997 19.0494 49.2438 18.7608 50.6879 18.4722C65.9952 13.8542 85.346 16.8847 106.141 28.8627C156.54 58.0138 197.552 128.438 197.552 186.307C197.552 213.294 188.598 232.776 174.013 242.878C190.331 233.353 200.44 213.15 200.44 184.431C200.44 126.706 159.572 56.1377 109.029 27.1309Z" fill="#FE9C55"/>
<path d="M111.628 99.8641C92.9992 89.0407 72.9263 89.9066 58.4854 98.1324C44.0446 106.358 42.1672 166.392 48.9545 171.01C55.7417 175.628 110.039 205.645 119.282 211.129C129.968 217.479 169.825 209.542 169.825 198.429C169.825 191.791 171.558 139.55 157.117 127.428C148.308 120.212 130.257 110.832 111.628 99.8641Z" fill="#FF6B00"/>
<path d="M97.187 116.893L88.8113 127.716L91.6994 139.406L85.0566 192.224L94.732 197.708L97.3314 142.003L107.296 131.324L103.83 117.759L97.187 116.893Z" fill="url(#paint2_linear)"/>
<path d="M133.883 128.128C131.001 138.601 113.973 144.01 95.896 140.212C77.8194 136.414 65.5064 124.79 68.2572 114.317C71.139 103.844 88.1676 98.4348 106.244 102.233C124.452 106.031 136.765 117.655 133.883 128.128Z" fill="#5F5C5D" fill-opacity="0.1"/>
<path opacity="0.5" d="M80.4356 145.034C78.4139 116.748 87.656 99.7196 90.6886 92.3597C85.2011 91.3495 79.8579 91.2052 74.948 91.7825C71.771 99.2867 65.417 118.336 68.7385 142.003C71.3378 160.331 76.6809 178.081 80.58 189.482C82.3129 190.492 84.0458 191.502 85.7787 192.512C82.8905 181.112 81.5909 160.619 80.4356 145.034Z" fill="url(#paint3_linear)"/>
<path d="M78.9919 144.457C76.8257 115.306 85.7791 100.874 88.3784 93.9474C93.1439 94.0917 88.3784 91.4941 93.2883 92.6485C79.1363 89.0407 65.9951 90.7725 56.6085 97.4109C47.2219 104.194 43.9005 119.924 43.4673 136.952C43.034 151.384 44.3337 167.835 47.2219 170.289C51.5542 174.185 65.9951 181.256 84.335 191.935C81.4468 180.535 80.1471 159.898 78.9919 144.457Z" fill="url(#paint4_radial)"/>
<path d="M158.417 127.716C151.485 121.944 137.622 114.728 123.47 106.791C127.802 109.244 127.947 110.976 131.846 113.285C128.669 123.098 122.459 129.448 114.517 142.436C105.275 157.733 97.1877 186.307 95.166 198.285C106.286 204.779 115.816 210.263 119.138 212.283C133.001 220.653 170.836 209.541 170.836 198.574C170.836 191.935 172.858 139.839 158.417 127.716Z" fill="url(#paint5_radial)"/>
<path d="M95.1658 198.285C92.422 196.698 89.5338 195.11 86.79 193.379C89.5338 194.966 92.422 196.698 95.1658 198.285Z" fill="#E6E7E8"/>
<path d="M91.1222 96.6892C85.7791 98.421 81.4468 107.08 82.0244 117.47C82.7465 130.17 86.6455 134.355 86.6455 134.355L98.1982 117.47L105.13 138.973C105.13 138.973 115.672 136.086 122.459 129.304C129.246 122.521 135.311 116.171 131.701 110.399C127.513 103.761 97.9094 94.3802 91.1222 96.6892Z" fill="#FF6B00"/>
<path opacity="0.5" d="M132.712 111.265C129.391 120.501 122.748 130.891 115.238 143.302C105.996 158.599 97.9094 187.173 95.8877 199.151C96.8986 199.728 97.9094 200.306 98.9203 200.883C101.375 192.801 106.285 178.659 114.661 163.65C126.069 143.302 142.387 123.243 145.998 119.202C142.243 117.037 137.189 113.863 132.712 111.265Z" fill="url(#paint6_linear)"/>
<path d="M132.134 110.399C128.812 119.635 122.17 130.025 114.66 142.436C105.418 157.733 97.3313 186.307 95.3096 198.285C96.3204 198.862 97.3313 199.44 98.3422 200.017C100.797 191.935 105.707 177.793 114.083 162.784C125.491 142.436 141.809 122.377 145.419 118.336C141.665 116.171 136.611 112.852 132.134 110.399Z" fill="url(#paint7_radial)"/>
<path d="M78.9922 144.457C76.9705 116.171 86.2127 99.1425 89.2453 91.7826C83.7577 90.7724 78.4146 90.6281 73.5047 91.2053C70.3277 98.7095 63.9737 117.759 67.2951 141.426C69.8945 159.754 75.2376 177.504 79.1366 188.905C80.8695 189.915 82.6024 190.925 84.3354 191.935C81.4472 180.535 80.1475 159.898 78.9922 144.457Z" fill="url(#paint8_radial)"/>
<path d="M105.13 139.117L98.1983 117.47L86.6456 134.499L85.6348 131.757L98.1983 116.171L106.574 138.395L105.13 139.117Z" fill="url(#paint9_radial)"/>
<path d="M69.0281 38.6756C66.2843 50.3649 66.8619 85.4328 75.6709 92.937C82.6025 98.8538 88.9565 94.9574 89.3897 103.616C89.823 112.275 86.2127 112.996 91.4115 116.749C96.4658 120.356 125.492 117.759 124.77 108.523C124.048 99.864 122.171 96.8335 126.214 88.752C130.257 80.6705 141.81 67.6824 140.077 56.2817C138.344 44.881 78.5591 -2.74209 69.0281 38.6756Z" fill="url(#paint10_radial)"/>
<path d="M64.4063 37.0882C59.7852 35.3565 59.2076 22.657 82.6018 6.92692C100.509 -4.90669 135.889 -2.59769 146.286 21.6468C157.117 46.7571 147.297 60.6111 139.066 78.7945C134.156 89.7622 125.202 91.3497 125.202 91.3497C125.202 91.3497 128.957 80.2376 132.134 76.1969C136.755 70.2801 140.221 62.4872 136.611 57.8692C134.589 55.2716 131.412 53.9728 127.08 58.3021C119.859 65.5178 112.206 41.7062 93.8657 37.9541C78.414 34.7792 69.0274 38.9643 64.4063 37.0882Z" fill="url(#paint11_linear)"/>
<path opacity="0.8" d="M94.2993 99.1425C92.1332 99.1425 90.1114 99.1425 86.79 98.1323C88.2341 98.9982 89.1006 100.441 89.245 103.328C89.6782 111.986 86.068 112.708 91.2667 116.46C93.144 117.759 98.0539 118.48 103.686 118.48C111.917 110.255 111.195 96.6892 111.195 96.6892C111.195 96.6892 100.798 98.9982 94.2993 99.1425Z" fill="url(#paint12_linear)"/>
<path opacity="0.5" d="M130.546 69.4142C130.546 69.4142 136.756 62.9202 134.589 59.601C132.279 56.2818 128.38 61.3327 128.38 61.3327L130.546 69.4142Z" fill="url(#paint13_linear)"/>
<path d="M221.378 231.477C221.378 245.764 216.468 256.01 208.381 260.917C208.092 261.061 194.662 269.431 194.374 269.576C185.998 274.194 191.341 263.659 178.633 256.299C153.073 241.579 132.278 205.79 132.278 176.35C132.278 161.774 118.848 161.774 127.079 156.868C127.368 156.723 142.386 148.065 142.675 147.92C151.051 143.447 162.459 144.168 175.023 151.528C200.583 166.248 221.378 202.037 221.378 231.477Z" fill="url(#paint14_linear)"/>
<path d="M206.215 240.425C206.215 269.72 185.421 281.554 159.86 266.834C134.3 252.114 113.505 216.324 113.505 186.885C113.505 157.445 134.3 145.756 159.86 160.476C185.421 175.34 206.215 211.129 206.215 240.425Z" fill="url(#paint15_linear)"/>
<path d="M162.026 159.465C149.751 152.394 138.632 151.384 130.256 155.569C138.054 153.404 147.585 154.992 157.982 161.053C183.543 175.773 204.338 211.562 204.338 241.002C204.338 256.299 198.706 266.834 189.752 271.307C201.016 268.132 208.381 256.876 208.381 239.414C208.381 209.975 187.586 174.185 162.026 159.465Z" fill="#2AD5DF"/>
<path d="M130.112 201.316L150.619 245.908C151.196 247.063 152.64 247.207 153.507 246.341L189.32 208.676C190.909 207.088 190.764 204.491 189.176 203.048L177.045 192.08C175.168 190.348 172.28 190.781 170.98 192.946L151.629 225.416L142.243 202.759C141.665 201.46 140.654 200.594 139.355 200.45L132.134 199.007C130.546 198.718 129.535 200.017 130.112 201.316Z" fill="white"/>
</g>
<defs>
<linearGradient id="paint0_linear" x1="80.0241" y1="35.0219" x2="218.285" y2="259.126" gradientUnits="userSpaceOnUse">
<stop offset="0.010101" stop-color="#FF6B00"/>
<stop offset="0.0359409" stop-color="#FF710A"/>
<stop offset="0.080137" stop-color="#FF8125"/>
<stop offset="0.1374" stop-color="#FF9A52"/>
<stop offset="0.2054" stop-color="#FFBE8F"/>
<stop offset="0.2816" stop-color="#FFEBDD"/>
<stop offset="0.3131" stop-color="white"/>
<stop offset="0.3286" stop-color="#FFF9F5"/>
<stop offset="0.3545" stop-color="#FFEADB"/>
<stop offset="0.3878" stop-color="#FFD2B1"/>
<stop offset="0.4271" stop-color="#FFAF76"/>
<stop offset="0.471" stop-color="#FF842C"/>
<stop offset="0.4949" stop-color="#FF6B00"/>
<stop offset="0.7576" stop-color="#FF6B00"/>
<stop offset="1" stop-color="#FF6B00"/>
</linearGradient>
<radialGradient id="paint1_radial" cx="0" cy="0" r="1" gradientUnits="userSpaceOnUse" gradientTransform="translate(167.319 245.867) scale(0.680312 0.679848)">
<stop stop-color="white"/>
<stop offset="0.0656227" stop-color="#D8D8D8"/>
<stop offset="0.1615" stop-color="#A6A6A6"/>
<stop offset="0.2622" stop-color="#797979"/>
<stop offset="0.3658" stop-color="#545454"/>
<stop offset="0.4731" stop-color="#353535"/>
<stop offset="0.5852" stop-color="#1E1E1E"/>
<stop offset="0.7042" stop-color="#0D0D0D"/>
<stop offset="0.835" stop-color="#030303"/>
<stop offset="1"/>
</radialGradient>
<linearGradient id="paint2_linear" x1="98.5361" y1="195.479" x2="93.0208" y2="116.611" gradientUnits="userSpaceOnUse">
<stop stop-color="#25054D"/>
<stop offset="1" stop-color="#45108A"/>
</linearGradient>
<linearGradient id="paint3_linear" x1="67.8145" y1="142.033" x2="90.6882" y2="142.033" gradientUnits="userSpaceOnUse">
<stop stop-color="white"/>
<stop offset="1" stop-color="#BCBEC0"/>
</linearGradient>
<radialGradient id="paint4_radial" cx="0" cy="0" r="1" gradientUnits="userSpaceOnUse" gradientTransform="translate(97.3667 123.825) scale(65.7618 65.7178)">
<stop stop-color="#5C5C5C"/>
<stop offset="1" stop-color="#3A3A3A"/>
</radialGradient>
<radialGradient id="paint5_radial" cx="0" cy="0" r="1" gradientUnits="userSpaceOnUse" gradientTransform="translate(126.976 140.65) scale(77.2983 77.2467)">
<stop stop-color="#696969"/>
<stop offset="1" stop-color="#383838"/>
</radialGradient>
<linearGradient id="paint6_linear" x1="95.9533" y1="156.179" x2="146.135" y2="156.179" gradientUnits="userSpaceOnUse">
<stop stop-color="white"/>
<stop offset="1" stop-color="#BCBEC0"/>
</linearGradient>
<radialGradient id="paint7_radial" cx="0" cy="0" r="1" gradientUnits="userSpaceOnUse" gradientTransform="translate(123.554 123.288) scale(106.875 106.804)">
<stop stop-color="#595959"/>
<stop offset="1" stop-color="#3A3A3A"/>
</radialGradient>
<radialGradient id="paint8_radial" cx="0" cy="0" r="1" gradientUnits="userSpaceOnUse" gradientTransform="translate(93.0848 101.69) scale(170.016 169.902)">
<stop stop-color="#595959"/>
<stop offset="1" stop-color="#3A3A3A"/>
</radialGradient>
<radialGradient id="paint9_radial" cx="0" cy="0" r="1" gradientUnits="userSpaceOnUse" gradientTransform="translate(97.1265 120.97) scale(15.8246 15.814)">
<stop stop-color="white"/>
<stop offset="1"/>
</radialGradient>
<radialGradient id="paint10_radial" cx="0" cy="0" r="1" gradientUnits="userSpaceOnUse" gradientTransform="translate(93.7273 59.9247) scale(47.1238 47.0923)">
<stop offset="0.030303" stop-color="#FEDFCB"/>
<stop offset="1" stop-color="#F9B69E"/>
</radialGradient>
<linearGradient id="paint11_linear" x1="117.05" y1="96.0281" x2="97.2771" y2="-16.8056" gradientUnits="userSpaceOnUse">
<stop offset="0.0353535" stop-color="#602213"/>
<stop offset="0.571" stop-color="#6D310E"/>
<stop offset="1" stop-color="#7A4108"/>
</linearGradient>
<linearGradient id="paint12_linear" x1="106.137" y1="111.605" x2="88.2051" y2="93.8978" gradientUnits="userSpaceOnUse">
<stop stop-color="#FCCBB5" stop-opacity="0"/>
<stop offset="1" stop-color="#C59584"/>
</linearGradient>
<linearGradient id="paint13_linear" x1="128.692" y1="65.0807" x2="136.616" y2="61.3452" gradientUnits="userSpaceOnUse">
<stop stop-color="#FCCFB9" stop-opacity="0"/>
<stop offset="1" stop-color="#D29170"/>
</linearGradient>
<linearGradient id="paint14_linear" x1="142.436" y1="146.841" x2="222.806" y2="280.486" gradientUnits="userSpaceOnUse">
<stop stop-color="#1BB0D4"/>
<stop offset="0.0767406" stop-color="#1EBFDD"/>
<stop offset="0.2248" stop-color="#27E8F6"/>
<stop offset="0.2727" stop-color="#2AF6FF"/>
<stop offset="0.7525" stop-color="#138BBD"/>
<stop offset="0.8939" stop-color="#1EBFDD"/>
<stop offset="1" stop-color="#1AAAD1"/>
</linearGradient>
<linearGradient id="paint15_linear" x1="31.4003" y1="242.472" x2="293.889" y2="183.591" gradientUnits="userSpaceOnUse">
<stop offset="0.0353535" stop-color="#138BBD"/>
<stop offset="0.2257" stop-color="#169AC7"/>
<stop offset="0.5946" stop-color="#1FC3DF"/>
<stop offset="1" stop-color="#2AF6FF"/>
</linearGradient>
<clipPath id="clip0">
<rect width="226" height="340" fill="white"/>
</clipPath>
</defs>
</svg>

<svg xmlns="http://www.w3.org/2000/svg" xmlns:xlink="http://www.w3.org/1999/xlink" width="226" height="340" fill="none" xmlns:v="https://vecta.io/nano"><g clip-path="url(#Q)"><path d="M211.126 177.649c0 28.285-9.82 48.344-25.56 58.013-.434.289-10.398 7.36-10.975 7.649-16.463 9.236-5.921-11.689-31.048-26.121-50.399-29.151-91.411-99.575-91.411-157.444 0-28.574-27.004-27.997-10.831-37.521.433-.289 14.152-8.659 14.585-8.947 16.463-8.947 38.99-7.216 63.829 7.071 50.543 28.863 91.411 99.431 91.411 157.301z" fill="url(#A)"/><g fill="#ff6b00"><path d="M99.353 251.248c-.144 0-.289 0-.433-.145-26.716-15.441-51.554-41.417-70.183-73.455C10.253 145.611 0 111.12 0 80.526c0-23.234 5.921-43.005 17.329-57.148.289-.289.722-.289 1.011-.144.289.289.433.722.144 1.01C7.365 38.098 1.444 57.581 1.444 80.526c0 30.306 10.109 64.652 28.593 96.401s43.178 57.725 69.605 73.022c.289.144.433.577.289 1.01-.144.144-.433.289-.578.289zm72.195-6.932c35.459-20.716 35.097-87.264-.808-148.639S76.983 1.341 41.525 22.057s-35.097 87.264.808 148.639 93.757 94.336 129.216 73.62z"/></g><path d="M165.493 246.63c.289 0 .433-.144.722-.289.578-.288 1.011-.721 1.589-1.01l-2.311 1.299z" fill="url(#B)"/><path d="M109.029 27.131C84.768 13.133 62.818 11.257 46.5 19.482c1.3-.433 2.744-.722 4.188-1.01 15.307-4.618 34.658-1.588 55.453 10.391 50.399 29.151 91.411 99.575 91.411 157.444 0 26.987-8.954 46.469-23.539 56.571 16.318-9.525 26.427-29.728 26.427-58.447 0-57.725-40.868-128.293-91.411-157.3z" fill="#fe9c55"/><path d="M111.628 99.864c-18.629-10.823-38.702-9.957-53.143-1.732s-16.318 68.26-9.531 72.878 61.085 34.635 70.327 40.119c10.686 6.35 50.543-1.587 50.543-12.7 0-6.638 1.733-58.879-12.708-71.001-8.809-7.216-26.86-16.596-45.489-27.564z" fill="#ff6b00"/><path d="M97.187 116.893l-8.376 10.823 2.888 11.69-6.643 52.818 9.675 5.484 2.599-55.705 9.965-10.679-3.466-13.565-6.643-.866z" fill="url(#C)"/><path d="M133.883 128.128c-2.882 10.473-19.91 15.882-37.987 12.084s-30.39-15.422-27.639-25.895c2.882-10.473 19.91-15.882 37.987-12.084 18.208 3.798 30.521 15.422 27.639 25.895z" fill="#5f5c5d" fill-opacity=".1"/><path opacity=".5" d="M80.436 145.034c-2.022-28.286 7.22-45.314 10.253-52.674-5.487-1.01-10.831-1.154-15.741-.577-3.177 7.504-9.531 26.554-6.209 50.22 2.599 18.328 7.942 36.078 11.841 47.479l5.199 3.03c-2.888-11.4-4.188-31.893-5.343-47.478z" fill="url(#D)"/><path d="M78.992 144.457c-2.166-29.151 6.787-43.583 9.386-50.51 4.766.144 0-2.453 4.91-1.299-14.152-3.608-27.293-1.876-36.68 4.762-9.387 6.783-12.708 22.513-13.141 39.541-.433 14.432.866 30.883 3.755 33.337 4.332 3.896 18.773 10.967 37.113 21.646-2.888-11.4-4.188-32.037-5.343-47.478z" fill="url(#E)"/><path d="M158.417 127.716c-6.932-5.772-20.795-12.988-34.947-20.925 4.332 2.453 4.477 4.185 8.376 6.494-3.177 9.813-9.387 16.163-17.329 29.151-9.242 15.297-17.329 43.871-19.351 55.849l23.972 13.998c13.863 8.37 51.698-2.742 51.698-13.709 0-6.639 2.022-58.735-12.419-70.858z" fill="url(#F)"/><path d="M95.166 198.285l-8.376-4.906 8.376 4.906z" fill="#e6e7e8"/><path d="M91.122 96.689c-5.343 1.732-9.675 10.391-9.098 20.781.722 12.7 4.621 16.885 4.621 16.885l11.553-16.885 6.932 21.503s10.542-2.887 17.329-9.669 12.852-13.133 9.242-18.905c-4.188-6.638-33.792-16.019-40.579-13.71z" fill="#ff6b00"/><path opacity=".5" d="M132.712 111.265c-3.321 9.236-9.964 19.626-17.474 32.037-9.242 15.297-17.329 43.871-19.35 55.849l3.033 1.732c2.455-8.082 7.365-22.224 15.741-37.233 11.408-20.348 27.726-40.407 31.337-44.448-3.755-2.165-8.809-5.339-13.286-7.937z" fill="url(#G)"/><path d="M132.134 110.399c-3.322 9.236-9.964 19.626-17.474 32.037-9.242 15.297-17.329 43.871-19.35 55.849l3.033 1.732c2.455-8.082 7.365-22.224 15.741-37.233 11.408-20.348 27.726-40.407 31.336-44.448-3.754-2.165-8.808-5.484-13.285-7.937z" fill="url(#H)"/><path d="M78.992 144.457c-2.022-28.286 7.221-45.314 10.253-52.674-5.488-1.01-10.831-1.154-15.741-.577-3.177 7.504-9.531 26.554-6.21 50.221 2.599 18.328 7.942 36.078 11.841 47.479l5.199 3.03c-2.888-11.4-4.188-32.037-5.343-47.478z" fill="url(#I)"/><path d="M105.13 139.117l-6.932-21.647-11.553 17.029-1.011-2.742 12.564-15.586 8.376 22.224-1.444.722z" fill="url(#J)"/><path d="M69.028 38.676c-2.744 11.689-2.166 46.757 6.643 54.261 6.932 5.917 13.286 2.02 13.719 10.679s-3.177 9.38 2.022 13.133c5.054 3.607 34.081 1.01 33.358-8.226-.722-8.659-2.599-11.689 1.444-19.771s15.596-21.07 13.863-32.47S78.559-2.742 69.028 38.676z" fill="url(#K)"/><path d="M64.406 37.088c-4.621-1.732-5.199-14.431 18.195-30.161 17.907-11.834 53.287-9.525 63.684 14.72 10.831 25.11 1.011 38.964-7.22 57.148-4.91 10.968-13.864 12.555-13.864 12.555s3.755-11.112 6.932-15.153c4.621-5.917 8.087-13.71 4.477-18.328-2.022-2.598-5.199-3.896-9.531.433-7.221 7.216-14.874-16.596-33.214-20.348-15.452-3.175-24.838 1.01-29.459-.866z" fill="url(#L)"/><path opacity=".8" d="M94.299 99.143c-2.166 0-4.188 0-7.509-1.01 1.444.866 2.311 2.309 2.455 5.196.433 8.658-3.177 9.38 2.022 13.132 1.877 1.299 6.787 2.02 12.419 2.02 8.231-8.225 7.509-21.791 7.509-21.791s-10.397 2.309-16.896 2.453z" fill="url(#M)"/><path opacity=".5" d="M130.546 69.414s6.21-6.494 4.043-9.813c-2.31-3.319-6.209 1.732-6.209 1.732l2.166 8.081z" fill="url(#N)"/><path d="M221.378 231.477c0 14.287-4.91 24.533-12.997 29.44-.289.144-13.719 8.514-14.007 8.659-8.376 4.618-3.033-5.917-15.741-13.277-25.56-14.72-46.355-50.509-46.355-79.949 0-14.576-13.43-14.576-5.199-19.482.289-.145 15.307-8.803 15.596-8.948 8.376-4.473 19.784-3.752 32.348 3.608 25.56 14.72 46.355 50.509 46.355 79.949z" fill="url(#O)"/><path d="M206.215 240.425c0 29.295-20.794 41.129-46.355 26.409s-46.355-50.51-46.355-79.949 20.795-41.129 46.355-26.409c25.561 14.864 46.355 50.653 46.355 79.949z" fill="url(#P)"/><path d="M162.026 159.465c-12.275-7.071-23.394-8.081-31.77-3.896 7.798-2.165 17.329-.577 27.726 5.484 25.561 14.72 46.356 50.509 46.356 79.949 0 15.297-5.632 25.832-14.586 30.305 11.264-3.175 18.629-14.431 18.629-31.893 0-29.439-20.795-65.229-46.355-79.949z" fill="#2ad5df"/><path d="M130.112 201.316l20.507 44.592c.577 1.155 2.021 1.299 2.888.433l35.813-37.665c1.589-1.588 1.444-4.185-.144-5.628l-12.131-10.968c-1.877-1.732-4.765-1.299-6.065.866l-19.351 32.47-9.386-22.657c-.578-1.299-1.589-2.165-2.888-2.309l-7.221-1.443c-1.588-.289-2.599 1.01-2.022 2.309z" fill="#fff"/></g><defs><linearGradient id="A" x1="80.024" y1="35.022" x2="218.285" y2="259.126" xlink:href="#R"><stop offset=".01" stop-color="#ff6b00"/><stop offset=".036" stop-color="#ff710a"/><stop offset=".08" stop-color="#ff8125"/><stop offset=".137" stop-color="#ff9a52"/><stop offset=".205" stop-color="#ffbe8f"/><stop offset=".282" stop-color="#ffebdd"/><stop offset=".313" stop-color="#fff"/><stop offset=".329" stop-color="#fff9f5"/><stop offset=".355" stop-color="#ffeadb"/><stop offset=".388" stop-color="#ffd2b1"/><stop offset=".427" stop-color="#ffaf76"/><stop offset=".471" stop-color="#ff842c"/><stop offset=".495" stop-color="#ff6b00"/></linearGradient><radialGradient id="B" cx="0" cy="0" r="1" gradientTransform="translate(167.319 245.867) scale(0.680312 0.679848)" xlink:href="#R"><stop stop-color="#fff"/><stop offset=".066" stop-color="#d8d8d8"/><stop offset=".162" stop-color="#a6a6a6"/><stop offset=".262" stop-color="#797979"/><stop offset=".366" stop-color="#545454"/><stop offset=".473" stop-color="#353535"/><stop offset=".585" stop-color="#1e1e1e"/><stop offset=".704" stop-color="#0d0d0d"/><stop offset=".835" stop-color="#030303"/><stop offset="1"/></radialGradient><linearGradient id="C" x1="98.536" y1="195.479" x2="93.021" y2="116.611" xlink:href="#R"><stop stop-color="#25054d"/><stop offset="1" stop-color="#45108a"/></linearGradient><linearGradient id="D" x1="67.815" y1="142.033" x2="90.688" y2="142.033" xlink:href="#R"><stop stop-color="#fff"/><stop offset="1" stop-color="#bcbec0"/></linearGradient><radialGradient id="E" cx="0" cy="0" r="1" gradientTransform="translate(97.3667 123.825) scale(65.7618 65.7178)" xlink:href="#R"><stop stop-color="#5c5c5c"/><stop offset="1" stop-color="#3a3a3a"/></radialGradient><radialGradient id="F" cx="0" cy="0" r="1" gradientTransform="translate(126.976 140.65) scale(77.2983 77.2467)" xlink:href="#R"><stop stop-color="#696969"/><stop offset="1" stop-color="#383838"/></radialGradient><linearGradient id="G" x1="95.953" y1="156.179" x2="146.135" y2="156.179" xlink:href="#R"><stop stop-color="#fff"/><stop offset="1" stop-color="#bcbec0"/></linearGradient><radialGradient id="H" cx="0" cy="0" r="1" gradientTransform="translate(123.554 123.288) scale(106.875 106.804)" xlink:href="#R"><stop stop-color="#595959"/><stop offset="1" stop-color="#3a3a3a"/></radialGradient><radialGradient id="I" cx="0" cy="0" r="1" gradientTransform="translate(93.0848 101.69) scale(170.016 169.902)" xlink:href="#R"><stop stop-color="#595959"/><stop offset="1" stop-color="#3a3a3a"/></radialGradient><radialGradient id="J" cx="0" cy="0" r="1" gradientTransform="translate(97.1265 120.97) scale(15.8246 15.814)" xlink:href="#R"><stop stop-color="#fff"/><stop offset="1"/></radialGradient><radialGradient id="K" cx="0" cy="0" r="1" gradientTransform="translate(93.7273 59.9247) scale(47.1238 47.0923)" xlink:href="#R"><stop offset=".03" stop-color="#fedfcb"/><stop offset="1" stop-color="#f9b69e"/></radialGradient><linearGradient id="L" x1="117.05" y1="96.028" x2="97.277" y2="-16.806" xlink:href="#R"><stop offset=".035" stop-color="#602213"/><stop offset=".571" stop-color="#6d310e"/><stop offset="1" stop-color="#7a4108"/></linearGradient><linearGradient id="M" x1="106.137" y1="111.605" x2="88.205" y2="93.898" xlink:href="#R"><stop stop-color="#fccbb5" stop-opacity="0"/><stop offset="1" stop-color="#c59584"/></linearGradient><linearGradient id="N" x1="128.692" y1="65.081" x2="136.616" y2="61.345" xlink:href="#R"><stop stop-color="#fccfb9" stop-opacity="0"/><stop offset="1" stop-color="#d29170"/></linearGradient><linearGradient id="O" x1="142.436" y1="146.841" x2="222.806" y2="280.486" xlink:href="#R"><stop stop-color="#1bb0d4"/><stop offset=".077" stop-color="#1ebfdd"/><stop offset=".225" stop-color="#27e8f6"/><stop offset=".273" stop-color="#2af6ff"/><stop offset=".753" stop-color="#138bbd"/><stop offset=".894" stop-color="#1ebfdd"/><stop offset="1" stop-color="#1aaad1"/></linearGradient><linearGradient id="P" x1="31.4" y1="242.472" x2="293.889" y2="183.591" xlink:href="#R"><stop offset=".035" stop-color="#138bbd"/><stop offset=".226" stop-color="#169ac7"/><stop offset=".595" stop-color="#1fc3df"/><stop offset="1" stop-color="#2af6ff"/></linearGradient><clipPath id="Q"><path fill="#fff" d="M0 0h226v340H0z"/></clipPath><linearGradient id="R" gradientUnits="userSpaceOnUse"/></defs></svg>
